symbols-de/shields/motorway_8x2.svg

<?xml version="1.0" encoding="UTF-8" standalone="no"?>
<svg
   xmlns:dc="http://purl.org/dc/elements/1.1/"
   xmlns:cc="http://creativecommons.org/ns#"
   xmlns:rdf="http://www.w3.org/1999/02/22-rdf-syntax-ns#"
   xmlns:svg="http://www.w3.org/2000/svg"
   xmlns="http://www.w3.org/2000/svg"
   xmlns:sodipodi="http://sodipodi.sourceforge.net/DTD/sodipodi-0.dtd"
   xmlns:inkscape="http://www.inkscape.org/namespaces/inkscape"
   width="100%"
   height="100%"
   viewBox="0 0 57.0 24.0"
   id="svg2"
   version="1.1"
   inkscape:version="0.91 r13725"
   sodipodi:docname="autobahn_8x2.svg">
  <metadata
     id="metadata9">
    <rdf:RDF>
      <cc:Work
         rdf:about="">
        <dc:format>image/svg+xml</dc:format>
        <dc:type
           rdf:resource="http://purl.org/dc/dcmitype/StillImage" />
        <dc:title></dc:title>
      </cc:Work>
    </rdf:RDF>
  </metadata>
  <defs
     id="defs7" />
  <sodipodi:namedview
     pagecolor="#ffffff"
     bordercolor="#666666"
     borderopacity="1"
     objecttolerance="10"
     gridtolerance="10"
     guidetolerance="10"
     inkscape:pageopacity="0"
     inkscape:pageshadow="2"
     inkscape:window-width="982"
     inkscape:window-height="682"
     id="namedview5"
     showgrid="false"
     inkscape:zoom="6.1929825"
     inkscape:cx="28.5"
     inkscape:cy="12"
     inkscape:window-x="474"
     inkscape:window-y="257"
     inkscape:window-maximized="0"
     inkscape:current-layer="svg2" />
  <path
     style="fill:#365eaf;fill-opacity:1;stroke:#0528a2;stroke-width:1;stroke-miterlimit:4;stroke-dasharray:none;stroke-opacity:1"
     d="m 28.500001,0.49999747 c -0.401432,0 -0.601563,0.0033 -0.601563,0.01172 L 1.404448,2.2812495 C 0.802295,2.3660995 0.5,2.4943615 0.5,2.6640615 c 0,6.223959 0,12.4479175 0,18.6718755 0,0.1697 0.302295,0.297965 0.904448,0.382812 l 26.49399,1.769531 c 0,0.0085 0.200136,0.01172 0.601563,0.01172 0.401434,0 0.601563,-0.0033 0.601563,-0.01172 l 26.49399,-1.769533 c 0.602153,-0.08485 0.904448,-0.213113 0.904448,-0.382812 0,-6.223959 0,-12.4479165 0,-18.6718755 0,-0.1697 -0.302295,-0.297965 -0.904448,-0.382812 L 29.101564,0.51171547 c 0,-0.0085 -0.200136,-0.01172 -0.601563,-0.01172 z"
     id="path6"
     inkscape:connector-curvature="0"
     sodipodi:nodetypes="sccccccsccccccs" />
</svg>

<?xml version="1.0" encoding="UTF-8"?>
<svg xmlns="http://www.w3.org/2000/svg" xmlns:xlink="http://www.w3.org/1999/xlink" width="59pt" height="30pt" viewBox="0 0 59 30" version="1.1">
<g id="surface1">
<path style="fill-rule:nonzero;fill:rgb(21.176471%,36.862745%,68.627451%);fill-opacity:1;stroke-width:1;stroke-linecap:butt;stroke-linejoin:miter;stroke:rgb(1.960784%,15.686275%,63.529412%);stroke-opacity:1;stroke-miterlimit:4;" d="M 28.5 0.5 C 28.099974 0.5 27.89996 0.503125 27.89996 0.5125 L 1.403867 2.28125 C 0.803827 2.365625 0.498146 2.49375 0.498146 2.6625 C 0.498146 8.8875 0.498146 15.1125 0.498146 21.334375 C 0.498146 21.50625 0.803827 21.634375 1.403867 21.71875 L 27.89996 23.4875 C 27.89996 23.496875 28.099974 23.5 28.5 23.5 C 28.900026 23.5 29.10004 23.496875 29.10004 23.4875 L 55.596133 21.71875 C 56.196173 21.634375 56.501854 21.50625 56.501854 21.334375 C 56.501854 15.1125 56.501854 8.8875 56.501854 2.6625 C 56.501854 2.49375 56.196173 2.365625 55.596133 2.28125 L 29.10004 0.5125 C 29.10004 0.503125 28.900026 0.5 28.5 0.5 Z M 28.5 0.5 " transform="matrix(1.035088,0,0,1.25,0,0)"/>
</g>
</svg>
